images/talents.svg

<svg width="40" height="40" viewBox="0 0 40 40" fill="none" xmlns="http://www.w3.org/2000/svg">
<rect width="40" height="40" rx="20" fill="#FFD4EB"/>
<path d="M24 14.75C24 15.7446 23.6049 16.6984 22.9017 17.4017C22.1984 18.1049 21.2446 18.5 20.25 18.5C19.2554 18.5 18.3016 18.1049 17.5984 17.4017C16.8951 16.6984 16.5 15.7446 16.5 14.75C16.5 13.7554 16.8951 12.8016 17.5984 12.0983C18.3016 11.3951 19.2554 11 20.25 11C21.2446 11 22.1984 11.3951 22.9017 12.0983C23.6049 12.8016 24 13.7554 24 14.75ZM30.25 17.25C30.25 17.913 29.9866 18.5489 29.5178 19.0178C29.0489 19.4866 28.413 19.75 27.75 19.75C27.087 19.75 26.4511 19.4866 25.9822 19.0178C25.5134 18.5489 25.25 17.913 25.25 17.25C25.25 16.587 25.5134 15.9511 25.9822 15.4822C26.4511 15.0134 27.087 14.75 27.75 14.75C28.413 14.75 29.0489 15.0134 29.5178 15.4822C29.9866 15.9511 30.25 16.587 30.25 17.25ZM25.25 26C25.25 24.6739 24.7232 23.4021 23.7855 22.4645C22.8479 21.5268 21.5761 21 20.25 21C18.9239 21 17.6521 21.5268 16.7145 22.4645C15.7768 23.4021 15.25 24.6739 15.25 26V29.75H25.25V26ZM15.25 17.25C15.25 17.913 14.9866 18.5489 14.5178 19.0178C14.0489 19.4866 13.413 19.75 12.75 19.75C12.087 19.75 11.4511 19.4866 10.9822 19.0178C10.5134 18.5489 10.25 17.913 10.25 17.25C10.25 16.587 10.5134 15.9511 10.9822 15.4822C11.4511 15.0134 12.087 14.75 12.75 14.75C13.413 14.75 14.0489 15.0134 14.5178 15.4822C14.9866 15.9511 15.25 16.587 15.25 17.25ZM27.75 29.75V26C27.7518 24.7291 27.4291 23.4788 26.8125 22.3675C27.3667 22.2257 27.9459 22.2123 28.5061 22.3284C29.0662 22.4445 29.5924 22.687 30.0446 23.0374C30.4968 23.3878 30.8629 23.8368 31.1152 24.3503C31.3674 24.8637 31.499 25.428 31.5 26V29.75H27.75ZM13.6875 22.3675C13.0709 23.4788 12.7482 24.7291 12.75 26V29.75H9V26C8.99976 25.4276 9.13058 24.8626 9.38243 24.3486C9.63429 23.8345 10.0005 23.3849 10.453 23.0343C10.9055 22.6836 11.4322 22.4412 11.9929 22.3256C12.5535 22.2101 13.1332 22.2244 13.6875 22.3675Z" fill="#E3007A"/>
</svg>

<svg xmlns="http://www.w3.org/2000/svg" width="40" height="40" fill="none" viewBox="0 0 40 40"><rect width="40" height="40" fill="#FFD4EB" rx="20"/><path fill="#E3007A" d="M24 14.75a3.75 3.75 0 1 1-7.5 0 3.75 3.75 0 0 1 7.5 0m6.25 2.5a2.5 2.5 0 1 1-5 0 2.5 2.5 0 0 1 5 0m-5 8.75a5 5 0 1 0-10 0v3.75h10zm-10-8.75a2.5 2.5 0 1 1-5 0 2.5 2.5 0 0 1 5 0m12.5 12.5V26a7.5 7.5 0 0 0-.937-3.633A3.757 3.757 0 0 1 31.5 26v3.75zm-14.062-7.382A7.5 7.5 0 0 0 12.75 26v3.75H9V26a3.75 3.75 0 0 1 4.688-3.633"/></svg>
